source/img/fork-and-kfine.svg

<svg width="60" height="60" viewBox="0 0 60 60" fill="none" xmlns="http://www.w3.org/2000/svg">
<rect width="60" height="60" fill="#68B738"/>
<path fill-rule="evenodd" clip-rule="evenodd" d="M36.6173 15.0761C36.991 14.9214 37.4211 15.0069 37.7071 15.2929C38.6156 16.2014 39.8038 18.1706 40.7659 21.2108C41.7373 24.2804 42.5 28.5081 42.5 34C42.5 34.5523 42.0523 35 41.5 35H38V44C38 44.5523 37.5523 45 37 45C36.4477 45 36 44.5523 36 44V16C36 15.5956 36.2436 15.2309 36.6173 15.0761ZM38 33H40.4912C40.4053 28.1836 39.7051 24.4875 38.8591 21.8142C38.5807 20.9346 38.2885 20.1715 38 19.519V33Z" fill="white"/>
<path fill-rule="evenodd" clip-rule="evenodd" d="M24 15C24.5523 15 25 15.4477 25 16V44C25 44.5523 24.5523 45 24 45C23.4477 45 23 44.5523 23 44V16C23 15.4477 23.4477 15 24 15Z" fill="white"/>
<path fill-rule="evenodd" clip-rule="evenodd" d="M19.5 15C20.0523 15 20.5 15.4477 20.5 16V21.5C20.5 22.0569 20.692 22.8152 21.2009 23.4166C21.68 23.9828 22.5145 24.5 23.9999 24.5C24.5522 24.5 24.9999 24.9477 24.9999 25.5C24.9999 26.0523 24.5522 26.5 23.9999 26.5C21.9855 26.5 20.57 25.7672 19.6741 24.7084C18.808 23.6848 18.5 22.4431 18.5 21.5V16C18.5 15.4477 18.9477 15 19.5 15Z" fill="white"/>
<path fill-rule="evenodd" clip-rule="evenodd" d="M28.5 15C27.9477 15 27.5 15.4477 27.5 16V21.5C27.5 22.0569 27.308 22.8152 26.7991 23.4166C26.32 23.9828 25.4854 24.5 23.9999 24.5C23.4476 24.5 23.0001 24.9477 23.0001 25.5C23.0001 26.0523 23.4476 26.5 23.9999 26.5C26.0144 26.5 27.43 25.7672 28.3259 24.7084C29.192 23.6848 29.5 22.4431 29.5 21.5V16C29.5 15.4477 29.0523 15 28.5 15Z" fill="white"/>
</svg>

<svg xmlns="http://www.w3.org/2000/svg" width="60" height="60" fill="none"><path fill="#68B738" d="M0 0h60v60H0z"/><path fill="#fff" fill-rule="evenodd" d="M36.62 15.08a1 1 0 0 1 1.09.21c.9.91 2.1 2.88 3.06 5.92A42.6 42.6 0 0 1 42.5 34a1 1 0 0 1-1 1H38v9a1 1 0 1 1-2 0V16a1 1 0 0 1 .62-.92ZM38 33h2.5a39.62 39.62 0 0 0-1.64-11.19 22.4 22.4 0 0 0-.86-2.3V33ZM24 15a1 1 0 0 1 1 1v28a1 1 0 1 1-2 0V16a1 1 0 0 1 1-1Z" clip-rule="evenodd"/><path fill="#fff" fill-rule="evenodd" d="M19.5 15a1 1 0 0 1 1 1v5.5c0 .56.2 1.32.7 1.92.48.56 1.31 1.08 2.8 1.08a1 1 0 1 1 0 2 5.41 5.41 0 0 1-4.33-1.8 5.07 5.07 0 0 1-1.17-3.2V16a1 1 0 0 1 1-1Z" clip-rule="evenodd"/><path fill="#fff" fill-rule="evenodd" d="M28.5 15a1 1 0 0 0-1 1v5.5c0 .56-.2 1.32-.7 1.92-.48.56-1.31 1.08-2.8 1.08a1 1 0 0 0 0 2c2.01 0 3.43-.73 4.33-1.8a5.07 5.07 0 0 0 1.17-3.2V16a1 1 0 0 0-1-1Z" clip-rule="evenodd"/></svg>
